icons/glyphs/glyph-torus.svg

<?xml version="1.0" encoding="UTF-8" standalone="no"?><svg height="16" viewBox="0 0 4.2333332 4.2333332" width="16" xmlns="http://www.w3.org/2000/svg"><sodipodi:namedview/><metadata><rdf:RDF><cc:Work><dc:format>image/svg+xml</dc:format><dc:type/><dc:title/></cc:Work></rdf:RDF></metadata><path d="m2.1166665 0a2.1167517 2.1167517 0 0 0 -2.11666644 2.1166667 2.1167517 2.1167517 0 0 0 2.11666644 2.1166665 2.1167517 2.1167517 0 0 0 2.1166666-2.1166665 2.1167517 2.1167517 0 0 0 -2.1166666-2.1166667zm0 1.5184864a.59815462.59815462 0 0 1  .5981804.5981803.59815462.59815462 0 0 1 -.5981804.5981802.59815462.59815462 0 0 1 -.5981802-.5981802.59815462.59815462 0 0 1  .5981802-.5981803z" fill="#d0d0d0" stroke-width=".317111"/></svg>

<?xml version="1.0" encoding="UTF-8" standalone="no"?>
<!-- Created with Inkscape (http://www.inkscape.org/) -->

<svg
   xmlns:dc="http://purl.org/dc/elements/1.1/"
   xmlns:cc="http://creativecommons.org/ns#"
   xmlns:rdf="http://www.w3.org/1999/02/22-rdf-syntax-ns#"
   xmlns:svg="http://www.w3.org/2000/svg"
   xmlns="http://www.w3.org/2000/svg"
   xmlns:sodipodi="http://sodipodi.sourceforge.net/DTD/sodipodi-0.dtd"
   xmlns:inkscape="http://www.inkscape.org/namespaces/inkscape"
   width="16"
   height="16"
   viewBox="0 0 4.2333332 4.2333332"
   version="1.1"
   id="svg8"
   inkscape:version="0.92+devel (260139f747, 2017-08-10, custom)"
   sodipodi:docname="glyph-torus.svg">
  <defs
     id="defs2" />
  <sodipodi:namedview
     id="base"
     pagecolor="#002466"
     bordercolor="#ffffff"
     borderopacity="0.38039216"
     inkscape:pageopacity="1"
     inkscape:pageshadow="2"
     inkscape:zoom="10.137867"
     inkscape:cx="55.90616"
     inkscape:cy="27.302424"
     inkscape:document-units="px"
     inkscape:current-layer="svg8"
     inkscape:document-rotation="0"
     showgrid="false"
     inkscape:showpageshadow="false"
     borderlayer="true"
     inkscape:window-width="1920"
     inkscape:window-height="1027"
     inkscape:window-x="0"
     inkscape:window-y="24"
     inkscape:window-maximized="1"
     units="px" />
  <metadata
     id="metadata5">
    <rdf:RDF>
      <cc:Work
         rdf:about="">
        <dc:format>image/svg+xml</dc:format>
        <dc:type
           rdf:resource="http://purl.org/dc/dcmitype/StillImage" />
        <dc:title></dc:title>
      </cc:Work>
    </rdf:RDF>
  </metadata>
  <path
     style="fill:#d0d0d0;stroke-width:0.31711137"
     d="M 2.1166665,0 A 2.1167517,2.1167517 0 0 0 6e-8,2.1166667 2.1167517,2.1167517 0 0 0 2.1166665,4.2333332 2.1167517,2.1167517 0 0 0 4.2333331,2.1166667 2.1167517,2.1167517 0 0 0 2.1166665,0 Z m 0,1.5184864 A 0.59815462,0.59815462 0 0 1 2.7148469,2.1166667 0.59815462,0.59815462 0 0 1 2.1166665,2.7148469 0.59815462,0.59815462 0 0 1 1.5184863,2.1166667 0.59815462,0.59815462 0 0 1 2.1166665,1.5184864 Z"
     id="path811"
     inkscape:connector-curvature="0" />
</svg>
